assets/img/braze_icons/qr-code-02.svg

<svg fill="none" height="24" viewBox="0 0 24 24" width="24" xmlns="http://www.w3.org/2000/svg"><g fill="#801ed7"><path clip-rule="evenodd" d="m15.5681 2c-.2524-.00003-.4982-.00006-.7063.01695-.2286.01868-.4984.06274-.7698.20104-.3763.19175-.6823.49771-.874.87403-.1383.27143-.1824.54116-.201.76976-.0171.20813-.017.45389-.017.70625v3.86387c0 .25236-.0001.4982.017.70634.0186.22859.0627.49832.201.76975.1917.37631.4977.68231.874.87401.2714.1383.5412.1824.7698.2011.2081.017.4539.0169.7063.0169h3.8638c.2524 0 .4982.0001.7063-.0169.2286-.0187.4984-.0628.7698-.2011.3763-.1917.6823-.4977.874-.87401.1383-.27143.1824-.54116.2011-.76975.017-.20812.0169-.45385.0169-.70618v-3.86393c0-.25233.0001-.49824-.0169-.70635-.0187-.2286-.0628-.49833-.2011-.76976-.1917-.37632-.4977-.68228-.874-.87403-.2714-.1383-.5412-.18236-.7698-.20104-.2081-.01701-.4539-.01698-.7063-.01695zm.9319 4.5c0-.55228.4477-1 1-1h.01c.5523 0 1 .44772 1 1s-.4477 1-1 1h-.01c-.5523 0-1-.44772-1-1z" fill-rule="evenodd"/><path d="m13 12c-.5523 0-1 .4477-1 1s.4477 1 1 1h.01c.5523 0 1-.4477 1-1s-.4477-1-1-1z"/><path d="m17.5 16.5c-.5523 0-1 .4477-1 1s.4477 1 1 1h.01c.5523 0 1-.4477 1-1s-.4477-1-1-1z"/><path d="m14 15.5c.5523 0 1 .4477 1 1v4.5c0 .5523-.4477 1-1 1s-1-.4477-1-1v-4.5c0-.5523.4477-1 1-1z"/><path d="m16.5 13c-.5523 0-1 .4477-1 1s.4477 1 1 1h4.5c.5523 0 1-.4477 1-1s-.4477-1-1-1z"/><path d="m21 16c.5523 0 1 .4477 1 1v4c0 .5523-.4477 1-1 1h-4c-.5523 0-1-.4477-1-1s.4477-1 1-1h3v-3c0-.5523.4477-1 1-1z"/><g clip-rule="evenodd" fill-rule="evenodd"><path d="m4.56811 2h3.86379c.25238-.00003.49818-.00006.70634.01695.22859.01868.49832.06274.76975.20104.37631.19175.68231.49771.87401.87403.1383.27143.1824.54116.2011.76976.017.20816.0169.45396.0169.70635v3.86376c0 .25238.0001.49818-.0169.70635-.0187.22859-.0628.49832-.2011.76975-.1917.37631-.4977.68231-.87401.87401-.27143.1383-.54116.1824-.76975.2011-.20817.017-.45397.0169-.70635.0169h-3.86377c-.25238 0-.49818.0001-.70634-.0169-.2286-.0187-.49833-.0628-.76976-.2011-.37632-.1917-.68228-.4977-.87403-.87401-.1383-.27143-.18236-.54116-.20104-.76975-.01701-.20816-.01698-.45395-.01695-.70632v-3.86381c-.00003-.25238-.00006-.49818.01695-.70633.01868-.2286.06274-.49833.20104-.76976.19175-.37632.49771-.68228.87403-.87403.27143-.1383.54116-.18236.76976-.20104.20815-.01701.45395-.01698.70633-.01695zm.93189 4.5c0-.55228.44772-1 1-1h.01c.55228 0 1 .44772 1 1s-.44772 1-1 1h-.01c-.55228 0-1-.44772-1-1z"/><path d="m4.56811 13c-.25236 0-.4982-.0001-.70633.017-.2286.0186-.49833.0627-.76976.201-.37632.1917-.68228.4977-.87403.874-.1383.2714-.18236.5412-.20104.7698-.01701.2081-.01698.4539-.01695.7063v3.8638c-.00003.2524-.00006.4982.01695.7063.01868.2286.06274.4984.20104.7698.19175.3763.49771.6823.87403.874.27143.1383.54116.1824.76976.2011.20813.017.45389.0169.70624.0169h3.86387c.25235 0 .49821.0001.70635-.0169.22859-.0187.49832-.0628.76975-.2011.37631-.1917.68231-.4977.87401-.874.1383-.2714.1824-.5412.2011-.7698.017-.2081.0169-.4539.0169-.7063v-3.8638c0-.2524.0001-.4982-.0169-.7063-.0187-.2286-.0628-.4984-.2011-.7698-.1917-.3763-.4977-.6823-.87401-.874-.27143-.1383-.54116-.1824-.76975-.201-.20814-.0171-.4539-.017-.70626-.017zm1.93189 3.5c-.55228 0-1 .4477-1 1s.44772 1 1 1h.01c.55228 0 1-.4477 1-1s-.44772-1-1-1z"/></g></g></svg>

<svg width="24" height="24" viewBox="0 0 24 24" fill="none" xmlns="http://www.w3.org/2000/svg">
<path fill-rule="evenodd" clip-rule="evenodd" d="M15.5681 2C15.3157 1.99997 15.0699 1.99994 14.8618 2.01695C14.6332 2.03563 14.3634 2.07969 14.092 2.21799C13.7157 2.40974 13.4097 2.7157 13.218 3.09202C13.0797 3.36345 13.0356 3.63318 13.017 3.86178C12.9999 4.06991 13 4.31567 13 4.56803V8.4319C13 8.68426 12.9999 8.9301 13.017 9.13824C13.0356 9.36683 13.0797 9.63656 13.218 9.90799C13.4097 10.2843 13.7157 10.5903 14.092 10.782C14.3634 10.9203 14.6332 10.9644 14.8618 10.9831C15.0699 11.0001 15.3157 11 15.5681 11H19.4319C19.6843 11 19.9301 11.0001 20.1382 10.9831C20.3668 10.9644 20.6366 10.9203 20.908 10.782C21.2843 10.5903 21.5903 10.2843 21.782 9.90799C21.9203 9.63656 21.9644 9.36683 21.9831 9.13824C22.0001 8.93012 22 8.68439 22 8.43206V4.56813C22 4.3158 22.0001 4.06989 21.9831 3.86178C21.9644 3.63318 21.9203 3.36345 21.782 3.09202C21.5903 2.7157 21.2843 2.40974 20.908 2.21799C20.6366 2.07969 20.3668 2.03563 20.1382 2.01695C19.9301 1.99994 19.6843 1.99997 19.4319 2H15.5681ZM16.5 6.5C16.5 5.94772 16.9477 5.5 17.5 5.5H17.51C18.0623 5.5 18.51 5.94772 18.51 6.5C18.51 7.05228 18.0623 7.5 17.51 7.5H17.5C16.9477 7.5 16.5 7.05228 16.5 6.5Z" fill="#801ED7"/>
<path d="M13 12C12.4477 12 12 12.4477 12 13C12 13.5523 12.4477 14 13 14H13.01C13.5623 14 14.01 13.5523 14.01 13C14.01 12.4477 13.5623 12 13.01 12H13Z" fill="#801ED7"/>
<path d="M17.5 16.5C16.9477 16.5 16.5 16.9477 16.5 17.5C16.5 18.0523 16.9477 18.5 17.5 18.5H17.51C18.0623 18.5 18.51 18.0523 18.51 17.5C18.51 16.9477 18.0623 16.5 17.51 16.5H17.5Z" fill="#801ED7"/>
<path d="M14 15.5C14.5523 15.5 15 15.9477 15 16.5V21C15 21.5523 14.5523 22 14 22C13.4477 22 13 21.5523 13 21V16.5C13 15.9477 13.4477 15.5 14 15.5Z" fill="#801ED7"/>
<path d="M16.5 13C15.9477 13 15.5 13.4477 15.5 14C15.5 14.5523 15.9477 15 16.5 15H21C21.5523 15 22 14.5523 22 14C22 13.4477 21.5523 13 21 13H16.5Z" fill="#801ED7"/>
<path d="M21 16C21.5523 16 22 16.4477 22 17V21C22 21.5523 21.5523 22 21 22H17C16.4477 22 16 21.5523 16 21C16 20.4477 16.4477 20 17 20H20V17C20 16.4477 20.4477 16 21 16Z" fill="#801ED7"/>
<path fill-rule="evenodd" clip-rule="evenodd" d="M4.56811 2H8.4319C8.68428 1.99997 8.93008 1.99994 9.13824 2.01695C9.36683 2.03563 9.63656 2.07969 9.90799 2.21799C10.2843 2.40974 10.5903 2.7157 10.782 3.09202C10.9203 3.36345 10.9644 3.63318 10.9831 3.86178C11.0001 4.06994 11 4.31574 11 4.56813V8.43189C11 8.68427 11.0001 8.93007 10.9831 9.13824C10.9644 9.36683 10.9203 9.63656 10.782 9.90799C10.5903 10.2843 10.2843 10.5903 9.90799 10.782C9.63656 10.9203 9.36683 10.9644 9.13824 10.9831C8.93007 11.0001 8.68427 11 8.43189 11H4.56812C4.31574 11 4.06994 11.0001 3.86178 10.9831C3.63318 10.9644 3.36345 10.9203 3.09202 10.782C2.7157 10.5903 2.40974 10.2843 2.21799 9.90799C2.07969 9.63656 2.03563 9.36683 2.01695 9.13824C1.99994 8.93008 1.99997 8.68429 2 8.43192L2 4.56811C1.99997 4.31573 1.99994 4.06993 2.01695 3.86178C2.03563 3.63318 2.07969 3.36345 2.21799 3.09202C2.40974 2.7157 2.7157 2.40974 3.09202 2.21799C3.36345 2.07969 3.63318 2.03563 3.86178 2.01695C4.06993 1.99994 4.31573 1.99997 4.56811 2ZM5.5 6.5C5.5 5.94772 5.94772 5.5 6.5 5.5H6.51C7.06228 5.5 7.51 5.94772 7.51 6.5C7.51 7.05228 7.06228 7.5 6.51 7.5H6.5C5.94772 7.5 5.5 7.05228 5.5 6.5Z" fill="#801ED7"/>
<path fill-rule="evenodd" clip-rule="evenodd" d="M4.56811 13C4.31575 13 4.06991 12.9999 3.86178 13.017C3.63318 13.0356 3.36345 13.0797 3.09202 13.218C2.7157 13.4097 2.40974 13.7157 2.21799 14.092C2.07969 14.3634 2.03563 14.6332 2.01695 14.8618C1.99994 15.0699 1.99997 15.3157 2 15.5681L2 19.4319C1.99997 19.6843 1.99994 19.9301 2.01695 20.1382C2.03563 20.3668 2.07969 20.6366 2.21799 20.908C2.40974 21.2843 2.7157 21.5903 3.09202 21.782C3.36345 21.9203 3.63318 21.9644 3.86178 21.9831C4.06991 22.0001 4.31567 22 4.56802 22H8.43189C8.68424 22 8.9301 22.0001 9.13824 21.9831C9.36683 21.9644 9.63656 21.9203 9.90799 21.782C10.2843 21.5903 10.5903 21.2843 10.782 20.908C10.9203 20.6366 10.9644 20.3668 10.9831 20.1382C11.0001 19.9301 11 19.6843 11 19.4319V15.5681C11 15.3157 11.0001 15.0699 10.9831 14.8618C10.9644 14.6332 10.9203 14.3634 10.782 14.092C10.5903 13.7157 10.2843 13.4097 9.90799 13.218C9.63656 13.0797 9.36683 13.0356 9.13824 13.017C8.9301 12.9999 8.68434 13 8.43198 13H4.56811ZM6.5 16.5C5.94772 16.5 5.5 16.9477 5.5 17.5C5.5 18.0523 5.94772 18.5 6.5 18.5H6.51C7.06228 18.5 7.51 18.0523 7.51 17.5C7.51 16.9477 7.06228 16.5 6.51 16.5H6.5Z" fill="#801ED7"/>
</svg>
